<?xml version="1.0" encoding="UTF-8"?>
<map version="1.10" tiledversion="1.11.2" orientation="orthogonal" renderorder="right-down" width="11" height="13" tilewidth="32" tileheight="32" infinite="0" nextlayerid="2" nextobjectid="1">
 <tileset firstgid="1" source="../../water/water.tsx"/>
 <layer id="1" name="water" width="11" height="13">
  <data encoding="csv">
0,0,0,0,0,0,0,0,0,0,0,
0,0,0,0,0,0,0,0,0,0,0,
0,0,0,0,0,0,0,0,0,0,0,
0,0,0,0,0,0,0,0,0,0,0,
0,0,0,0,0,0,0,0,0,0,0,
0,0,0,0,0,0,0,0,0,0,0,
0,0,0,0,0,0,0,0,0,0,0,
0,19,19,0,0,0,0,0,0,0,0,
0,19,19,0,0,0,0,0,0,0,0,
0,19,19,0,105,105,105,105,105,105,105,
0,0,0,0,105,105,105,105,105,105,105,
0,0,0,0,105,105,105,105,105,105,105,
0,0,0,0,105,105,105,105,105,105,105
</data>
 </layer>
</map>
